!!!OTL: DER JAEGER IN DEM GRUENEN WALD
!!!ARE: Europa, Mitteleuropa, Deutschland
!!!SCT: F0655
!!!YEM: Copyright 1995, estate of Helmut Schaffrath.
**kern
*ICvox
*Ivox
*M4/4
*k[]
*C:
{4g
=1
4.cc
8b
4a
4g
=2
4.a
8g
4f}
{4e
=3
4g
4g
4a
4b
=4
4cc
4ee
4.dd
8b
=5
2cc
4r}
{4g
=6
4.cc
8b
4a
4g
=7
4.a
8g
4f}
{4e
=8
4g
4g
4a
4b
=9
4cc
4ee
4.dd
8b
=10
2cc
4r}
{4cc
=11
4b
4dd
4dd
4b
=12
4.cc
8dd
4ee}
{4cc
=13
4b
4dd
4dd
4b
=14
4.cc
8dd
4ee}
{4g
=15
4.cc
8b
4a
4g
=16
4.a
8g
4f}
{4e
=17
4g
4g
4a
4b
=18
4cc
4ee
4.dd
8b
=19
2cc
4r}
==
!!!AGN: Staende -, Jaeger - Lied, Liebe
!!!ONB: ESAC (Essen Associative Code) Database: FINK
!!!AMT: simple quadruple
!!!AIN: vox
!!!EED: Helmut Schaffrath
!!!EEV: 1.0
*-
